assets/lighthouse-logo.svg

<svg fill="none" height="128" viewBox="0 0 128 128" width="128" xmlns="http://www.w3.org/2000/svg" xmlns:xlink="http://www.w3.org/1999/xlink"><mask id="a" height="120" maskUnits="userSpaceOnUse" width="120" x="4" y="4"><path d="m64 124c33.1371 0 60-26.8629 60-60s-26.8629-60-60-60-60 26.8629-60 60 26.8629 60 60 60z" fill="#0535c1"/></mask><g mask="url(#a)"><path d="m64 124c33.1371 0 60-26.8629 60-60s-26.8629-60-60-60-60 26.8629-60 60 26.8629 60 60 60z" fill="#06f"/><path d="m94 60.25c-5.5228 0-10-4.4772-10-10s4.4772-10 10-10c5.207 0 9.484 3.9797 9.957 9.0634.048.5155.463.9366.981.9366h4.062c2.761 0 5 2.2386 5 5s-2.239 5-5 5z" fill="#5dbceb"/><path d="m63.5031 14.3105-19.0625 11.9141c-.2741.1713-.4406.4718-.4406.795v19.7929c0 .5177-.4197.9375-.9375.9375h-8.125c-.5178 0-.9375.4197-.9375.9375v10.625c0 .5177.4197.9375.9375.9375h7.9893c.5678 0 1.0053.5008.929 1.0634l-9.7116 71.6236c-.0763.562.3612 1.063.929 1.063h57.8536c.5678 0 1.0053-.501.929-1.063l-9.7116-71.6236c-.0763-.5626.3612-1.0634.929-1.0634h7.9893c.5178 0 .9375-.4198.9375-.9375v-10.625c0-.5178-.4197-.9375-.9375-.9375h-8.125c-.5178 0-.9375-.4198-.9375-.9375v-19.7929c0-.3232-.1665-.6237-.4406-.795l-19.0625-11.9141c-.304-.19-.6898-.19-.9938 0z" fill="#f63"/><g fill="#ffa385"><path d="m36.3151 116.926 2.6426-19.4889 46.9047-23.4523 2.307 17.0145z"/><path d="m82.168 134h-36.3361l45.1098-22.555 2.3071 17.015z"/><path d="m69.668 60.25-27.5348 13.7674 1.8668-13.7674z"/></g><path d="m56.5 34c0-.6904.5596-1.25 1.25-1.25h12.5c.6904 0 1.25.5596 1.25 1.25v12.5c0 .6904-.5596 1.25-1.25 1.25h-12.5c-.6904 0-1.25-.5596-1.25-1.25z" fill="#ff3"/><path d="m24 74c-5.5228 0-10-4.4772-10-10s4.4772-10 10-10c3.7473 0 7.0132 2.0612 8.7258 5.1116.3739.6661 1.0472 1.1384 1.8111 1.1384h9.4631c3.797 0 6.875 3.078 6.875 6.875s-3.078 6.875-6.875 6.875z" fill="#fff"/></g></svg>

<svg width="128" height="128" viewBox="0 0 128 128" fill="none" xmlns="http://www.w3.org/2000/svg">
<mask id="mask0_1354_3057" style="mask-type:alpha" maskUnits="userSpaceOnUse" x="4" y="4" width="120" height="120">
<path d="M64 124C97.1371 124 124 97.1371 124 64C124 30.8629 97.1371 4 64 4C30.8629 4 4 30.8629 4 64C4 97.1371 30.8629 124 64 124Z" fill="#0535C1"/>
</mask>
<g mask="url(#mask0_1354_3057)">
<path d="M64 124C97.1371 124 124 97.1371 124 64C124 30.8629 97.1371 4 64 4C30.8629 4 4 30.8629 4 64C4 97.1371 30.8629 124 64 124Z" fill="#0066FF"/>
<path d="M94 60.25C88.4772 60.25 84 55.7728 84 50.25C84 44.7272 88.4772 40.25 94 40.25C99.207 40.25 103.484 44.2297 103.957 49.3134C104.005 49.8289 104.42 50.25 104.938 50.25H109C111.761 50.25 114 52.4886 114 55.25C114 58.0114 111.761 60.25 109 60.25H94Z" fill="#5DBCEB"/>
<path d="M63.5031 14.3105L44.4406 26.2246C44.1665 26.3959 44 26.6964 44 27.0196V46.8125C44 47.3302 43.5803 47.75 43.0625 47.75H34.9375C34.4197 47.75 34 48.1697 34 48.6875V59.3125C34 59.8302 34.4197 60.25 34.9375 60.25H42.9268C43.4946 60.25 43.9321 60.7508 43.8558 61.3134L34.1442 132.937C34.0679 133.499 34.5054 134 35.0732 134H92.9268C93.4946 134 93.9321 133.499 93.8558 132.937L84.1442 61.3134C84.0679 60.7508 84.5054 60.25 85.0732 60.25H93.0625C93.5803 60.25 94 59.8302 94 59.3125V48.6875C94 48.1697 93.5803 47.75 93.0625 47.75H84.9375C84.4197 47.75 84 47.3302 84 46.8125V27.0196C84 26.6964 83.8335 26.3959 83.5594 26.2246L64.4969 14.3105C64.1929 14.1205 63.8071 14.1205 63.5031 14.3105Z" fill="#FF6633"/>
<path d="M36.3151 116.926L38.9577 97.4371L85.8624 73.9848L88.1694 90.9993L36.3151 116.926Z" fill="#FFA385"/>
<path d="M82.168 134H45.8319L90.9417 111.445L93.2488 128.46L82.168 134Z" fill="#FFA385"/>
<path d="M69.668 60.25L42.1332 74.0174L44 60.25H69.668Z" fill="#FFA385"/>
<path d="M56.5 34C56.5 33.3096 57.0596 32.75 57.75 32.75H70.25C70.9404 32.75 71.5 33.3096 71.5 34V46.5C71.5 47.1904 70.9404 47.75 70.25 47.75H57.75C57.0596 47.75 56.5 47.1904 56.5 46.5V34Z" fill="#FFFF33"/>
<path d="M24 74C18.4772 74 14 69.5228 14 64C14 58.4772 18.4772 54 24 54C27.7473 54 31.0132 56.0612 32.7258 59.1116C33.0997 59.7777 33.773 60.25 34.5369 60.25H44C47.797 60.25 50.875 63.328 50.875 67.125C50.875 70.922 47.797 74 44 74H24Z" fill="white"/>
</g>
</svg>
